!!!!SEGMENT: pl-cz--iii-679--001-005_volckmer-augustin--missa-in-d-cum-sancto-spiritu.krn
!!!cenid: 17xx:1177
!!!COM: Volckmer, Augustin
!!!COM-rismID: pe30020656
!!!CDT: 1755-~1820
!!!CNT:
!!!OPR: Missa in D
!!!OTL: Cum Sancto Spiritu
!!!OMV: 005
!!!PDT:
!!!AGN: Sacred; Mass
!!!YEC: Copyright 2022 Narodowy Instytut Fryderyka Chopina (https://polishscores.org)
!!!YEM: License CC-BY-4.0 (https://creativecommons.org/licenses/by/4.0)
!!!SMS-siglum: PL-CZ
!!!SMS-shelfmark: III-679
!!!SMS-shelfwork: 001-005 M
!!!SMS-variant:
!!!SMS-altvar:
!!!NIFC-rismSourceID: 300001394
!!!NIFC-rismChildID: 300001394
!!!NIFC-islandoraID: pl-cz:40002
!!!URL-pdf-islandora: https://repozytorium.nifc.pl/islandora/object/pl-cz%3A40002/datastream/PDF/view
!!!URL-scan: https://polish.musicsources.pl/pl/lokalizacje/galeria/rekopisy/6978/1 @EN{Scan on Polish Music Sources Website} @PL{Skany w portalu Dziedzictwo Muzyki Polskiej w otwartym dostępie}
!!!IIIF:
!!!ONB-nifc: UWAGA: części Mszy: Sinfonia, Kyrie, Gloria, Domine Deus, Cum Sancto Spiritu, In gloria Dei Patris, Credo, Et incarnatus, Et resurrexit, Sanctus, Pleni Sunt, Benedictus, Agnus Dei, Dona nobis
!!!OMD: Adagio
!!!AIN: 1 alto 1 bass 2 clrno 2 cor 2 fagot 1 flt 2 oboe 1 organ 1 soprn 1 tenor 1 timpa 2 viola 1 viole 2 violn
!!!key: D
**kern	**fba	**dynam	**kern	**dynam	**kern	**dynam	**kern	**dynam	**kern	**dynam	**kern	**text	**kern	**text	**dynam	**kern	**text	**dynam	**kern	**text	**dynam	**kern	**kern	**dynam	**kern	**dynam	**kern	**dynam	**kern	**dynam	**kern	**dynam	**kern	**dynam	**kern	**dynam	**kern	**dynam	**kern	**dynam
*part19	*	*	*part18	*	*part17	*	*part16	*	*part15	*	*part14	*	*part13	*	*	*part12	*	*	*part11	*	*	*part10	*part9	*	*part8	*	*part7	*	*part6	*	*part5	*	*part4	*	*part3	*	*part2	*	*part1	*
*staff19	*	*	*staff18	*	*staff17	*	*staff16	*	*staff15	*	*staff14	*	*staff13	*	*	*staff12	*	*	*staff11	*	*	*staff10	*staff9	*	*staff8	*	*staff7	*	*staff6	*	*staff5	*	*staff4	*	*staff3	*	*staff2	*	*staff1	*
*I"Organo. v Violone	*	*	*I"Viola. Secundo.	*	*I"Viola Primo.	*	*I"Violino Secundo.	*	*I"Violino. Primo.	*	*I"Baſso.	*	*I"Tenore.	*	*	*I"Alto.	*	*	*I"Canto.	*	*	*I"Timpano	*I"Clarino Secundo	*	*I"Clarino Primo	*	*I"Corno Secundo	*	*I"Corno Primo.	*	*I"Fagotho Secundo.	*	*I"Fagotho Primo.	*	*I"Hautbois Secundo.	*	*I"Hautbois Primo.	*	*I"Flauto.	*
*I'org and vlne	*	*	*I'vla 2	*	*I'vla 1	*	*I'vl 2	*	*I'vl 1	*	*I'B	*	*I'T	*	*	*I'A	*	*	*I'S	*	*	*I'timp	*I'clno 2	*	*I'clno 1	*	*I'cor 2	*	*I'cor 1	*	*I'fag 2	*	*I'fag 1	*	*I'ob 2	*	*I'ob 1	*	*I'fl	*
*Iorgan&Iviole	*	*	*Iviola	*	*Iviola	*	*Ivioln	*	*Ivioln	*	*Ibass	*	*Itenor	*	*	*Ialto	*	*	*Isoprn	*	*	*Itimpa	*Iclrno	*	*Iclrno	*	*Icor	*	*Icor	*	*Ifagot	*	*Ifagot	*	*Ioboe	*	*Ioboe	*	*Iflt	*
*ICklav/ICstr	*	*	*ICstr	*	*ICstr	*	*ICstr	*	*ICstr	*	*ICvox	*	*ICvox	*	*	*ICvox	*	*	*ICvox	*	*	*ICidio	*ICbras	*	*ICbras	*	*ICbras	*	*ICbras	*	*ICww	*	*ICww	*	*ICww	*	*ICww	*	*ICww	*
*clefF4	*	*	*clefC3	*	*clefC3	*	*clefG2	*	*clefG2	*	*clefF4	*	*clefC4	*	*	*clefC3	*	*	*clefC1	*	*	*clefF4	*clefG2	*	*clefG2	*	*clefG2	*	*clefG2	*	*clefF4	*	*clefF4	*	*clefG2	*	*clefG2	*	*clefG2	*
*	*	*	*	*	*	*	*	*	*	*	*	*	*	*	*	*	*	*	*	*	*	*	*ITrd-1c-2	*	*ITrd-1c-2	*	*ITrd6c10	*	*ITrd6c10	*	*	*	*	*	*	*	*	*	*	*
*	*	*	*	*	*	*	*	*	*	*	*	*	*	*	*	*	*	*	*	*	*	*	*	*	*	*	*	*	*	*	*	*	*	*	*	*	*ok[]	*	*	*
*k[f#c#]	*	*	*k[f#c#]	*	*k[f#c#]	*	*k[f#c#]	*	*k[f#c#]	*	*k[f#c#]	*	*k[f#c#]	*	*	*k[f#c#]	*	*	*k[f#c#]	*	*	*k[]	*k[f#c#]	*	*k[f#c#]	*	*k[f#c#]	*	*k[f#c#]	*	*k[f#c#]	*	*k[f#c#]	*	*k[f#c#]	*	*k[f#c#]	*	*k[f#c#]	*
*D:	*	*	*D:	*	*D:	*	*D:	*	*D:	*	*D:	*	*D:	*	*	*D:	*	*	*D:	*	*	*D:	*D:	*	*D:	*	*D:	*	*D:	*	*D:	*	*D:	*	*D:	*	*D:	*	*D:	*
*M3/4	*	*	*M3/4	*	*M3/4	*	*M3/4	*	*M3/4	*	*M3/4	*	*M3/4	*	*	*M3/4	*	*	*M3/4	*	*	*M3/4	*M3/4	*	*M3/4	*	*M3/4	*	*M3/4	*	*M3/4	*	*M3/4	*	*M3/4	*	*M3/4	*	*M3/4	*
*	*	*	*all\right	*	*all\right	*	*all\right	*	*	*	*	*	*	*	*	*	*	*	*all\right	*	*	*	*	*	*	*	*	*	*	*	*	*	*	*	*	*	*all\right	*	*	*
=1	=1	=1	=1	=1	=1	=1	=1	=1	=1	=1	=1	=1	=1	=1	=1	=1	=1	=1	=1	=1	=1	=1	=1	=1	=1	=1	=1	=1	=1	=1	=1	=1	=1	=1	=1	=1	=1	=1	=1	=1
!	!	!	!	!	!	!	!	!	!	!	!	!	!	!	!	!	!	!	!	!	!	!	!	!	!	!	!LO:TX:a:t=2	!	!LO:TX:a:t=2	!	!	!	!	!	!	!	!	!	!	!
!	!	!	!	!	!	!	!	!	!	!	!	!	!	!	!	!	!	!	!	!	!	!	!	!	!	!	!LO:TX:a:i:t=adagio	!	!LO:TX:a:t=adagio	!	!	!	!	!	!	!	!LO:TX:a:t=Adagio.	!	!	!
!LO:TX:a:t=Tutti	!	!	!LO:TX:a:t=adagio	!LO:DY:a:t=for	!LO:TX:a:t=adagio	!	!LO:TX:a:i:t=Adagio.	!LO:DY:a	!LO:TX:a:i:t=Adagio	!	!LO:TX:a:i:t=adagio.	!	!	!	!LO:DY:a:t=forte	!LO:TX:a:i:t=Adagio.	!	!	!LO:TX:a:t=adagio	!	!LO:DY:a:t=forte	!LO:TX:a:i:t=Adagio	!LO:TX:a:i:t=Adagio	!LO:DY:b:t=for	!LO:TX:a:t=Adagio	!LO:DY:b:t=for	!LO:TX:a:t=in D	!	!LO:TX:a:t=in D	!	!LO:TX:a:t=Ang&colon;	!LO:DY:a:t=Forte	!LO:TX:a:i:t=Adagio	!LO:DY:a:t=Forte	!LO:TX:a:t=Adagio	!	!LO:TX:a:t=2	!	!LO:TX:a:i:t=adagio	!LO:DY:b:t=for.
4D\	5_ 3_	.	4A\ 4f#	f	4d\ 4a	.	4f#/ 4dd	f	4d/ 4a 4ff#	.	4D/	Cum	4d\	Cum	f	4a\	Cum	.	4ff#\	Cum	f	4Rb\	4dd\	f	4ff#\	f	1.r	.	1.r	.	4D\	f	4D\	f	1.r	.	1.r	.	4ddd\	f
4D\	.	.	4A\ 4f#	.	4d\ 4a	.	4f#/ 4dd	.	4d/ 4a 4ff#	.	4D/	S(an)c-	4d\	San-	.	4a\	S(an)c-	.	4ff#\	S(an)c-	.	4Rb\	4dd\	.	4ff#\	.	.	.	.	.	4D\	.	4D\	.	.	.	.	.	4ddd\	.
!	!	!	!	!	!	!	!	!	!	!	!	!	!	!	!	!	!	!LO:DY:a:t=for&colon;	!	!	!	!	!	!	!	!	!	!	!	!	!	!	!	!	!	!	!	!	!	!
4D\	x x	.	4A\ 4f#	.	4d\ 4a	.	4f#/ 4dd	.	4d/ 4a 4ff#	.	4D/	-to	4d\	-cto	.	4a\	-to	f	4ff#\	-to	.	4Rb\	4dd\	.	4ff#\	.	.	.	.	.	4D\	.	4D\	.	.	.	.	.	4ddd\	.
=2	=2	=2	=2	=2	=2	=2	=2	=2	=2	=2	=2	=2	=2	=2	=2	=2	=2	=2	=2	=2	=2	=2	=2	=2	=2	=2	=2	=2	=2	=2	=2	=2	=2	=2	=2	=2	=2	=2	=2	=2
!	!	!	!	!	!	!	!	!	!	!	!	!	!	!	!	!	!	!	!	!	!	!LO:TX:t=P:problem=mixed beam	!	!	!	!	!	!	!	!	!	!	!	!	!	!	!	!	!	!
8D\L	.	.	4c#\ 4g	.	4e\ 4a	.	(8dd\L	.	(8ff#\L	.	8D/	Spi-	8d\	Spi-	.	8a\	spi-	.	8ff#\	Spi-	.	8Rb\L	8dd\L	.	8ff#\L	.	.	.	.	.	4A\	.	4C#/	.	.	.	.	.	8ddd\L	.
8C#\J	5_ 3_	.	.	.	.	.	8ee\J)	.	8gg\J)	.	8C#/	-ri-	8e\	-ri-	.	8a\	-ri-	.	8gg\	-ri-	.	8Rf/J	8ee\J	.	8gg\J	.	.	.	.	.	.	.	.	.	.	.	.	.	8eee\J	.
4C#/	x x	.	4c#\ 4g	.	4e\ 4a	.	4ee\	.	4gg\	.	4C#/	-tu	4e\	-tu	.	4a\	-tu	.	4gg\	-tu	.	4Rf/	4ee\	.	4gg\	.	.	.	.	.	4AA/	.	4C#/	.	.	.	.	.	4eee\	.
4r	.	.	4r	.	4r	.	4r	.	4r	.	4r	.	4r	.	.	4r	.	.	4r	.	.	4r	4r	.	4r	.	.	.	.	.	4r	.	4r	.	.	.	.	.	4r	.
!	!	!	!LO:LB:g=original	!	!	!	!	!	!	!	!	!	!	!	!	!	!	!	!	!	!	!	!	!	!	!	!	!	!	!	!	!	!	!	!	!	!	!	!	!
=3	=3	=3	=3	=3	=3	=3	=3	=3	=3	=3	=3	=3	=3	=3	=3	=3	=3	=3	=3	=3	=3	=3	=3	=3	=3	=3	=3	=3	=3	=3	=3	=3	=3	=3	=3	=3	=3	=3	=3	=3
*	*	*	*	*	*^	*	*^	*	*^	*	*	*	*	*	*	*	*	*	*	*	*	*	*	*	*	*	*	*	*	*	*	*	*	*	*	*	*	*	*	*
*	*	*	*	*	*	*cue	*	*cue	*	*	*cue	*	*	*	*	*	*	*	*	*	*	*	*	*	*	*	*	*	*	*	*	*	*	*	*	*	*	*	*	*	*	*	*
!	!	!	!	!	!	!	!	!	!	!	!	!	!	!	!	!	!	!	!	!	!	!	!	!	!	!	!	!	!	!	!	!	!	!	!	!	!	!	!	!LO:TX:b:i:t=Solo	!	!	!
!	!	!	!LO:TX:a:t=1	!	!LO:TX:b:t=Corno	!	!	!	!	!	!LO:TX:a:i:t=oboi	!	!	!LO:TX:a:t=1.	!	!LO:TX:a:t=1.	!	!	!LO:TX:a:t=1.	!	!	!LO:TX:a:t=1.	!	!	!	!	!	!	!	!LO:TX:a:i:t=Solo	!LO:DY:b:rj	!LO:TX:b:i:t=Solo	!	!	!LO:DY:a:t=piano	!	!LO:DY:a:t=p&colon;:rj	!LO:TX:b:i:t=Solo	!LO:DY:b:t=pia.	!	!	!LO:TX:a:t=1	!
2.r	.	.	2.r	.	2.r	4A\	.	8dd#X/L	2.r	.	(<8ff#/L	2.r	.	2.r	.	2.r	.	.	2.r	.	.	2.r	.	.	2.r	2.r	.	2.r	.	4AA/	p	4A/	p	(8D#X\L	p	(8F#\L	p	8dd#X\L	p	(8ff#\L	p	2.r	.
.	.	.	.	.	.	.	.	8ee/J	.	.	8gg/J)	.	.	.	.	.	.	.	.	.	.	.	.	.	.	.	.	.	.	.	.	.	.	8E\J)	.	8G\J)	.	8ee\J	.	8gg\J)	.	.	.
.	.	.	.	.	.	4A\	.	4ee/	.	.	4gg/	.	.	.	.	.	.	.	.	.	.	.	.	.	.	.	.	.	.	4AA/	.	4A/	.	4E\	.	4G\	.	4ee\	.	4gg\	.	.	.
.	.	.	.	.	.	4r	.	4r	.	.	4r	.	.	.	.	.	.	.	.	.	.	.	.	.	.	.	.	.	.	4r	.	4r	.	4r	.	4r	.	4r	.	4r	.	.	.
*	*	*	*	*	*	*Xcue	*	*Xcue	*	*	*Xcue	*	*	*	*	*	*	*	*	*	*	*	*	*	*	*	*	*	*	*	*	*	*	*	*	*	*	*	*	*	*	*	*
*	*	*	*	*	*v	*v	*	*	*	*	*	*	*	*	*	*	*	*	*	*	*	*	*	*	*	*	*	*	*	*	*	*	*	*	*	*	*	*	*	*	*	*	*
*	*	*	*	*	*	*	*v	*v	*	*	*	*	*	*	*	*	*	*	*	*	*	*	*	*	*	*	*	*	*	*	*	*	*	*	*	*	*	*	*	*	*	*
=4	=4	=4	=4	=4	=4	=4	=4	=4	=4	=4	=4	=4	=4	=4	=4	=4	=4	=4	=4	=4	=4	=4	=4	=4	=4	=4	=4	=4	=4	=4	=4	=4	=4	=4	=4	=4	=4	=4	=4	=4	=4
!	!	!	!	!LO:DY:a:t=for	!	!	!	!	!	!	!	!	!	!	!	!	!	!	!	!	!	!	!	!	!LO:DY:b:t=fors	!	!	!LO:TX:a:t=2	!	!LO:TX:a:t=2	!	!	!LO:DY:a:t=forte	!	!LO:DY:a:t=f&colon;	!LO:TX:a:t=2	!	!LO:TX:a:t=2	!	!	!
4AA/	5_ 3_	.	4c#\ 4e	f	4a\	.	4cc#\	.	4ee/	4a\	.	4AA/	Cum	4c#\	Cum	.	4a\	Cum	.	4ee\	Cum	.	4Rf/	4a/	f	4ee\	.	1.r	.	1.r	.	4AA/	f	4AA/	f	1.r	.	1.r	.	4ccc#\	.
4C#/	.	.	4c#\ 4e	.	4a\	.	4cc#\	.	4ee/	4a\	.	4C#/	S(an)c-	4c#\	San-	.	4a\	S(an)c-	.	4ee\	San-	.	4Rf/	4a/	.	4ee\	.	.	.	.	.	4C#/	.	4C#/	.	.	.	.	.	4eee\	.
4AA/	x x	.	4c#\ 4e	.	4a\	.	4cc#\	.	4ee/	4a\	.	4AA/	-to	4c#\	-cto	.	4a\	-to	.	4ee\	-cto	.	4Rf/	4a/	.	4ee\	.	.	.	.	.	4AA/	.	4AA/	.	.	.	.	.	4eee\	.
*	*	*	*	*	*	*	*	*	*v	*v	*	*	*	*	*	*	*	*	*	*	*	*	*	*	*	*	*	*	*	*	*	*	*	*	*	*	*	*	*	*	*
!	!	!	!	!	!	!	!LO:LB:g=original	!	!	!	!	!	!	!	!	!	!	!	!	!	!	!	!	!	!	!	!	!	!	!	!	!	!	!	!	!	!	!	!	!
=5	=5	=5	=5	=5	=5	=5	=5	=5	=5	=5	=5	=5	=5	=5	=5	=5	=5	=5	=5	=5	=5	=5	=5	=5	=5	=5	=5	=5	=5	=5	=5	=5	=5	=5	=5	=5	=5	=5	=5	=5
!	!	!	!	!	!	!	!	!	!	!	!	!	!	!	!	!	!	!	!	!	!	!	!LO:TX:t=P:problem=mixed beam	!	!	!	!	!	!	!	!	!	!	!	!	!	!	!	!	!
8C#\L	.	.	4A/ 4f#	.	4d\ 4a	.	8cc#\L	.	(8ee\L	.	8C#/	Spi-	8c#\	Spi-	.	8a\	Spi-	.	8ee\	Spi-	.	8Rf/L	8a/L	.	8ee\L	.	.	.	.	.	4Dn\	.	4D\	.	.	.	.	.	(8eee\L	.
8D\J	5_ 3_	.	.	.	.	.	8ddn\J	.	8ff#\J)	.	8D/	-ri-	8d\	-ri-	.	8a\	-ri-	.	8ff#\	-ri-	.	8Rb/J	8dd\J	.	8ff#\J	.	.	.	.	.	.	.	.	.	.	.	.	.	8fff#\J)	.
4D\	x x	.	4A/ 4f#	.	4d\ 4a	.	4dd\	.	4ff#\	.	4D/	-tu	4d\	-tu	.	4a\	-tu	.	4ff#\	-tu	.	4Rb\	4dd\	.	4ff#\	.	.	.	.	.	4DD/	.	4DD/	.	.	.	.	.	4fff#\	.
4r	.	.	4r	.	4r	.	4r	.	4r	.	4r	.	4r	.	.	4r	.	.	4r	.	.	4r	4r	.	4r	.	.	.	.	.	4r	.	4r	.	.	.	.	.	4r	.
=6	=6	=6	=6	=6	=6	=6	=6	=6	=6	=6	=6	=6	=6	=6	=6	=6	=6	=6	=6	=6	=6	=6	=6	=6	=6	=6	=6	=6	=6	=6	=6	=6	=6	=6	=6	=6	=6	=6	=6	=6
*	*	*	*	*	*^	*	*^	*	*^	*	*	*	*	*	*	*	*	*	*	*	*	*	*	*	*	*	*	*	*	*	*	*	*	*	*	*	*	*	*	*
*	*	*	*	*	*	*cue	*	*cue	*	*	*cue	*	*	*	*	*	*	*	*	*	*	*	*	*	*	*	*	*	*	*	*	*	*	*	*	*	*	*	*	*	*	*	*
!	!	!	!	!	!LO:TX:b:t=Corno	!	!	!	!	!	!	!	!	!	!	!	!	!	!	!	!	!	!	!	!	!	!	!	!	!	!	!	!	!	!	!	!	!	!	!	!	!	!
!	!	!	!LO:TX:a:t=1	!	!	!	!	!	!	!	!LO:TX:a:i:t=oboi	!	!	!LO:TX:a:t=4.	!	!LO:TX:a:t=4.	!	!	!LO:TX:a:t=4.	!	!	!LO:TX:a:t=4.	!	!	!LO:TX:a:t=4	!LO:TX:a:t=4	!	!	!	!LO:TX:a:i:t=Solo	!LO:DY:b:rj	!	!	!	!LO:DY:a:t=Piano	!LO:TX:a:i:t=Solo	!	!	!LO:DY:b:t=p.:rj	!	!	!LO:TX:a:t=4	!
2.r	.	.	2.r	.	2.rg	4A\	.	8cc#/L	2.r	.	8ee#X/L	2.r	.	0.r	.	0.r	.	.	0.r	.	.	0.r	.	.	0.r	0.r	.	0.r	.	4AA/	p	4A/	.	(8C#X/L	p	(8E#X\L	.	8cc#\L	p	(8ee#X\L	.	0.r	.
.	.	.	.	.	.	.	.	8dd/J	.	.	8ff#/J	.	.	.	.	.	.	.	.	.	.	.	.	.	.	.	.	.	.	.	.	.	.	8D/J)	.	8F#\J)	.	8ddn\J	.	8ff#\J)	.	.	.
!	!	!	!	!	!	!	!	!	!	!	!	!	!	!	!	!	!	!	!	!	!	!	!	!	!	!	!	!	!	!	!	!	!	!LO:SIC:v:s=4D/	!	!	!	!	!	!	!	!	!
.	.	.	.	.	.	4d\	.	4dd/	.	.	4ff#/	.	.	.	.	.	.	.	.	.	.	.	.	.	.	.	.	.	.	4D/	.	4d\	.	4C#/	.	4F#\	.	4dd\	.	4ff#\	.	.	.
.	.	.	.	.	.	4r	.	4r	.	.	4r	.	.	.	.	.	.	.	.	.	.	.	.	.	.	.	.	.	.	4r	.	4r	.	4r	.	4r	.	4r	.	4r	.	.	.
*	*	*	*	*	*	*Xcue	*	*Xcue	*	*	*Xcue	*	*	*	*	*	*	*	*	*	*	*	*	*	*	*	*	*	*	*	*	*	*	*	*	*	*	*	*	*	*	*	*
*	*	*	*	*	*v	*v	*	*	*	*	*v	*v	*	*	*	*	*	*	*	*	*	*	*	*	*	*	*	*	*	*	*	*	*	*	*	*	*	*	*	*	*	*	*
*	*	*	*	*	*	*	*v	*v	*	*	*	*	*	*	*	*	*	*	*	*	*	*	*	*	*	*	*	*	*	*	*	*	*	*	*	*	*	*	*	*	*
!	!	!	!	!	!	!	!	!	!	!	!	!	!	!	!	!	!	!	!	!	!	!	!	!	!	!	!	!	!	!	!LO:LB:g=original	!	!	!	!	!	!	!	!	!
=7	=7	=7	=7	=7	=7	=7	=7	=7	=7	=7	=7	=7	=7	=7	=7	=7	=7	=7	=7	=7	=7	=7	=7	=7	=7	=7	=7	=7	=7	=7	=7	=7	=7	=7	=7	=7	=7	=7	=7	=7
!	!	!LO:DY:a:t=Piano	!	!	!	!	!	!LO:DY:b:t=pia.	!	!LO:DY:b:t=pia	!	!	!	!	!	!	!	!	!	!	!	!	!	!	!	!	!LO:TX:a:t=3	!	!LO:TX:a:t=3	!	!	!LO:DY:a:t=Piano	!	!LO:DY:a:t=p&colon;	!	!	!LO:TX:a:t=3	!	!	!
4G\	3	p	4G/	.	4B/	.	4e/	p	(4een\	p	.	.	.	.	.	.	.	.	.	.	.	.	.	.	.	.	1.r	.	1.r	.	4GG/	p	4G\	p	1.r	.	1.r	.	.	.
4r	.	.	4r	.	4r	.	4g/	.	4gg\)	.	.	.	.	.	.	.	.	.	.	.	.	.	.	.	.	.	.	.	.	.	4r	.	4r	.	.	.	.	.	.	.
!	!	!	!	!LO:DY:b:t=p&colon;:rj	!	!	!	!	!	!	!	!	!	!	!	!	!	!	!	!	!	!	!	!	!	!	!	!	!	!	!	!	!	!	!	!	!	!	!	!
4G\	.	.	4B/	p	4g\	.	4b/	.	4bb\	.	.	.	.	.	.	.	.	.	.	.	.	.	.	.	.	.	.	.	.	.	4G\	.	4B\	.	.	.	.	.	.	.
=8	=8	=8	=8	=8	=8	=8	=8	=8	=8	=8	=8	=8	=8	=8	=8	=8	=8	=8	=8	=8	=8	=8	=8	=8	=8	=8	=8	=8	=8	=8	=8	=8	=8	=8	=8	=8	=8	=8	=8	=8
4F#\	3	.	4A/	.	4f#\	.	4a/	.	(4aa\	.	.	.	.	.	.	.	.	.	.	.	.	.	.	.	.	.	.	.	.	.	4F#\	.	4A\	.	.	.	.	.	.	.
4E\	3	.	4c#/	.	4e\	.	(4cc#\	.	4gg\	.	.	.	.	.	.	.	.	.	.	.	.	.	.	.	.	.	.	.	.	.	4E\	.	4G\	.	.	.	.	.	.	.
4D\	3	.	4d/	.	4d\	.	4dd\)	.	4ff#\)	.	.	.	.	.	.	.	.	.	.	.	.	.	.	.	.	.	.	.	.	.	4D\	.	4F#\	.	.	.	.	.	.	.
!LO:LB:g=original	!	!	!	!	!	!	!	!	!	!	!	!	!	!	!	!	!	!	!	!	!	!	!	!	!	!	!	!	!	!	!	!	!LO:LB:g=original	!	!	!	!	!	!	!
=9	=9	=9	=9	=9	=9	=9	=9	=9	=9	=9	=9	=9	=9	=9	=9	=9	=9	=9	=9	=9	=9	=9	=9	=9	=9	=9	=9	=9	=9	=9	=9	=9	=9	=9	=9	=9	=9	=9	=9	=9
*	*	*	*	*	*2\right	*	*2\right	*	*	*	*	*	*	*	*	*	*	*	*	*	*	*	*	*	*	*	*	*	*	*	*	*	*	*	*	*	*	*	*	*
4G\	6 3	.	(4e\	.	4g\	.	2b\	.	(4ee\	.	.	.	.	.	.	.	.	.	.	.	.	.	.	.	.	.	2.r	.	2.r	.	(4B\	.	4e\	.	2.r	.	2.r	.	.	.
*2\right	*	*	*	*	*	*	*	*	*	*	*	*	*	*	*	*	*	*	*	*	*	*	*	*	*	*	*	*	*	*	*	*	*	*	*	*	*	*	*	*
!	!	!	!	!	!	!	!	!	!	!	!	!	!	!	!	!	!	!	!	!	!	!	!	!	!	!	!	!	!	!	!	!	!LO:SIC:v:s=4fn\	!	!	!	!	!	!	!
2G#X\	n7 3	.	4fn\)	.	2g#X\	.	.	.	4ffn\)	.	.	.	.	.	.	.	.	.	.	.	.	.	.	.	.	.	.	.	.	.	4d\	.	4f#\	.	.	.	.	.	.	.
!	!	!	!	!	!	!	!	!LO:DY:b:t=for	!	!	!	!	!	!	!	!	!	!	!	!	!	!	!	!	!	!	!	!	!	!	!	!	!	!	!	!	!	!	!	!
.	5	.	4d|\	.	.	.	4b\	f	4dd|>\	.	.	.	.	.	.	.	.	.	.	.	.	.	.	.	.	.	.	.	.	.	4B\)	.	(8e\L	.	.	.	.	.	.	.
.	.	.	.	.	.	.	.	.	.	.	.	.	.	.	.	.	.	.	.	.	.	.	.	.	.	.	.	.	.	.	.	.	8d\J)	.	.	.	.	.	.	.
!	!	!	!	!	!LO:LB:g=original	!	!	!	!LO:LB:g=original	!	!	!	!	!	!	!	!	!	!	!	!	!	!	!	!	!	!	!	!	!	!	!	!	!	!	!	!	!	!	!
=10	=10	=10	=10	=10	=10	=10	=10	=10	=10	=10	=10	=10	=10	=10	=10	=10	=10	=10	=10	=10	=10	=10	=10	=10	=10	=10	=10	=10	=10	=10	=10	=10	=10	=10	=10	=10	=10	=10	=10	=10
*	*	*	*	*	*	*	*	*	*	*	*2\right	*	*2\right	*	*	*2\right	*	*	*2\right	*	*	*	*	*	*	*	*	*	*2\right	*	*	*	*	*	*2\right	*	*2\right	*	*2\right	*
!	!	!	!	!	!	!	!	!	!	!LO:DY:b:t=for	!	!	!	!	!	!	!	!	!	!	!	!	!	!	!	!	!	!	!	!	!LO:TX:b:t=staccato	!	!	!	!	!LO:DY:b:t=for.	!	!LO:DY:b:t=forte	!	!
!	!	!	!	!LO:DY:a:t=for	!	!LO:DY:b:t=for	!	!	!LO:TX:t=P:problem=mixed beam	!	!	!	!	!	!	!	!	!	!	!	!	!	!	!LO:DY:b:t=for	!	!LO:DY:b:t=fo	!	!LO:DY:b:t=for	!	!LO:DY:b:t=for	!LO:TX:t=P:problem=mixed beam	!LO:DY:a:t=forte	!	!LO:DY:a:t=forte	!	!	!	!	!	!
4A\	3	.	(8A/L	f	(8c#/L	f	8a/L	.	8cc#'\L	f	2.A\	Cum	2.c#\	Cum	.	2.a\	Cum	.	2.ee\	Cum	.	2.Rf/	4a/	f	4ee\	f	2.A/	f	2.e\	f	8A\L	f	8c#\L	f	2.cc#\	f	2.een\	f	2.aa\	.
.	.	.	8c#/)	.	8e/)	.	8A/	.	8c#'/	.	.	.	.	.	.	.	.	.	.	.	.	.	.	.	.	.	.	.	.	.	8AA|</	.	8C#|>\	.	.	.	.	.	.	.
4r	.	.	(8A/	.	(8c#/	.	8c#/	.	8e'/	.	.	.	.	.	.	.	.	.	.	.	.	.	8r	.	8r	.	.	.	.	.	8C#|</	.	8E|>\	.	.	.	.	.	.	.
.	.	.	8c#/)	.	8e/)	.	8e/	.	8g'/	.	.	.	.	.	.	.	.	.	.	.	.	.	8a/L	.	8ee\L	.	.	.	.	.	8E|</J	.	8A|>\	.	.	.	.	.	.	.
4A\	.	.	(8A/	.	(8c#/	.	8a/	.	8cc#'/	.	.	.	.	.	.	.	.	.	.	.	.	.	8a/	.	8ee\	.	.	.	.	.	8A'\L	.	8c#|>\	.	.	.	.	.	.	.
.	.	.	8c#/J)	.	8e/J)	.	8cc#/J	.	8ee'/J	.	.	.	.	.	.	.	.	.	.	.	.	.	8a/J	.	8ee\J	.	.	.	.	.	8c#'\J	.	8e|>\J	.	.	.	.	.	.	.
!	!	!	!	!	!	!	!	!	!	!	!	!	!	!	!	!	!	!	!LO:LB:g=original	!	!	!	!	!	!	!	!	!	!	!	!	!	!	!	!	!	!	!	!	!
=11	=11	=11	=11	=11	=11	=11	=11	=11	=11	=11	=11	=11	=11	=11	=11	=11	=11	=11	=11	=11	=11	=11	=11	=11	=11	=11	=11	=11	=11	=11	=11	=11	=11	=11	=11	=11	=11	=11	=11	=11
*	*	*	*	*	*tremolo	*	*	*	*	*	*	*	*	*	*	*	*	*	*	*	*	*2\right	*	*	*	*	*2\right	*	*	*	*	*	*	*	*	*	*	*	*	*
!	!	!	!	!	!	!	!LO:TX:t=P:problem=mixed beam	!	!LO:TX:t=P:problem=mixed beam	!	!	!	!	!	!	!	!	!	!	!	!	!	!	!	!	!	!	!	!	!	!LO:TX:t=P:problem=mixed beam	!	!	!	!	!	!	!	!	!
4F#\	6	.	(8A/L	.	(8d\L	.	8dd\L	.	8ff#X'\L	.	2F#\	Sanc-	2d\	San-	.	2a\	S(an)c-	.	2ff#\	San-	.	2.Rb\	4dd\	.	4ff#\	.	2.d\	.	2.f#\	.	8d|>\L	.	8f#X\L	.	2.dd\	.	2.ff#\	.	2.aa\	.
.	.	.	8d/)	.	8f#\	.	8A/	.	8d'/	.	.	.	.	.	.	.	.	.	.	.	.	.	.	.	.	.	.	.	.	.	8AA|>/	.	8D|>\	.	.	.	.	.	.	.
4r	.	.	(8A/	.	8d\	.	8d/	.	8f#'/	.	.	.	.	.	.	.	.	.	.	.	.	.	8r	.	8r	.	.	.	.	.	8D|>/	.	8F#|>\	.	.	.	.	.	.	.
.	.	.	8d/)	.	8f#\	.	8f#/	.	8a'/	.	.	.	.	.	.	.	.	.	.	.	.	.	8dd\L	.	8ff#\L	.	.	.	.	.	8F#|>/J	.	8A|>\	.	.	.	.	.	.	.
4F#\	.	.	(8A/	.	8d\	.	8a/	.	8dd'/	.	4F#\	-to	4d\	-cto	.	4a\	-to	.	4ff#\	-cto	.	.	8dd\	.	8ff#\	.	.	.	.	.	8A|>\L	.	8d|>\	.	.	.	.	.	.	.
!	!	!	!	!	!	!	!	!	!	!	!	!	!LO:TX:t=P:problem=custos d zamiast e	!	!	!	!	!	!	!	!	!	!	!	!	!	!	!	!	!	!	!	!	!	!	!	!	!	!	!
*	*	*	*	*	*	*	*	*	*	*	*	*	*custos:d	*	*	*	*	*	*	*	*	*	*	*	*	*	*	*	*	*	*	*	*	*	*	*	*	*	*	*
.	.	.	8d/J)	.	8f#\J)	.	8dd/J	.	8ff#'/J	.	.	.	.	.	.	.	.	.	.	.	.	.	8dd\J	.	8ff#\J	.	.	.	.	.	8d|>\J	.	8f#|>\J	.	.	.	.	.	.	.
!	!	!	!	!	!	!	!	!	!	!	!LO:LB:g=original	!	!LO:LB:g=original	!	!	!LO:LB:g=original	!	!	!	!	!	!	!	!	!	!	!	!	!	!	!	!	!	!	!	!	!	!	!	!
=12	=12	=12	=12	=12	=12	=12	=12	=12	=12	=12	=12	=12	=12	=12	=12	=12	=12	=12	=12	=12	=12	=12	=12	=12	=12	=12	=12	=12	=12	=12	=12	=12	=12	=12	=12	=12	=12	=12	=12	=12
*	*	*	*	*	*	*	*	*	*	*	*	*	*	*ij	*	*	*	*	*	*	*	*	*	*	*	*	*	*	*	*	*	*	*	*	*	*	*	*	*	*
!	!	!	!	!	!	!	!LO:TX:t=P:problem=mixed beam	!	!LO:TX:t=P:problem=mixed beam	!	!	!	!	!	!	!	!	!	!	!	!	!	!	!	!	!	!	!	!	!	!LO:TX:t=P:problem=mixed beam	!	!	!	!	!	!	!	!	!
4C#/	5 3	.	(8A/L	.	(8e\L	.	8ee\L	.	8gg'\L	.	2.C#/	Cum	2.e\	Cum	.	2.a\	Cum	.	2.gg\	Cum	.	2.Rf/	4ee\	.	4gg\	.	2.e\	.	2.g\	.	8c#\L	.	8e\L	.	2.ee\	.	2.gg\	.	2.aa\	.
.	.	.	8e/)	.	8gn\	.	8c#/	.	8e'/	.	.	.	.	.	.	.	.	.	.	.	.	.	.	.	.	.	.	.	.	.	8C#/	.	8E|>\	.	.	.	.	.	.	.
4r	.	.	(8A/	.	8e\	.	8e/	.	8a'/	.	.	.	.	.	.	.	.	.	.	.	.	.	8r	.	8r	.	.	.	.	.	8E/	.	8A|>\	.	.	.	.	.	.	.
.	.	.	8e/)	.	8gn\	.	8a/	.	8cc#'/	.	.	.	.	.	.	.	.	.	.	.	.	.	8ee\L	.	8gg\L	.	.	.	.	.	8A/J	.	8c#|>\	.	.	.	.	.	.	.
4C#/	.	.	(8A/	.	8e\	.	8cc#/	.	8ee'/	.	.	.	.	.	.	.	.	.	.	.	.	.	8ee\	.	8gg\	.	.	.	.	.	8c#\L	.	8e|>\	.	.	.	.	.	.	.
.	.	.	8e/J)	.	8gn\J)	.	8ee/J	.	8gg'/J	.	.	.	.	.	.	.	.	.	.	.	.	.	8ee\J	.	8gg\J	.	.	.	.	.	8A\J	.	8c#|>\J	.	.	.	.	.	.	.
*	*	*	*	*	*Xtremolo	*	*	*	*	*	*	*	*	*	*	*	*	*	*	*	*	*	*	*	*	*	*	*	*	*	*	*	*	*	*	*	*	*	*	*
!	!	!	!	!	!	!	!	!	!	!	!	!	!	!	!	!	!	!	!	!	!	!	!	!	!	!	!	!	!	!	!	!	!	!	!	!	!	!	!LO:LB:g=original	!
=13	=13	=13	=13	=13	=13	=13	=13	=13	=13	=13	=13	=13	=13	=13	=13	=13	=13	=13	=13	=13	=13	=13	=13	=13	=13	=13	=13	=13	=13	=13	=13	=13	=13	=13	=13	=13	=13	=13	=13	=13
*	*	*	*	*	*	*	*	*	*2\right	*	*	*	*	*	*	*	*	*	*	*	*	*	*	*	*	*	*	*	*	*	*	*	*	*	*	*	*	*	*	*
8r	.	.	8r	.	8r	.	2.dd\	.	2.ff#\	.	8r	.	2d\	San-	.	8r	.	.	2ff#\	San-	.	4Rb\	4dd\	.	4ff#\	.	2.d\	.	2.f#\	.	8r	.	8r	.	2.dd\	.	2.ff#\	.	8r	.
8D\L	3_ 1_	.	8d|\L	.	8d|\L	.	.	.	.	.	(8d\L	San-	.	.	.	8d|\L	San-	.	.	.	.	.	.	.	.	.	.	.	.	.	8d|\L	.	8d|>\L	.	.	.	.	.	8ddd'\L	.
8C#\	.	.	(8c#\	.	(8c#\	.	.	.	.	.	8c#\	.	.	.	.	(8c#\	.	.	.	.	.	4r	4r	.	4r	.	.	.	.	.	(8c#\	.	8c#\	.	.	.	.	.	(8ccc#\	.
8D\	.	.	8d\)	.	8d\	.	.	.	.	.	8d\J)	.	.	.	.	8d\J)	.	.	.	.	.	.	.	.	.	.	.	.	.	.	8d\)	.	8d\	.	.	.	.	.	8ddd\)	.
8C#\	x x	.	(8c#\	.	8c#\	.	.	.	.	.	(8c#\L	-cto	4d\	-cto	.	8c#/L	-cto	.	4ff#\	-cto	.	4r	4r	.	4r	.	.	.	.	.	8c#\	.	(8c#\	.	.	.	.	.	(8ccc#\	.
*	*	*	*	*	*	*	*	*	*	*	*	*	*	*Xij	*	*	*	*	*	*	*	*	*	*	*	*	*	*	*	*	*	*	*	*	*	*	*	*	*	*
8D\J	.	.	8d\J)	.	8d\J)	.	.	.	.	.	8d\J)	.	.	.	.	8d/J	.	.	.	.	.	.	.	.	.	.	.	.	.	.	8d\J	.	8d\J)	.	.	.	.	.	8ddd\J)	.
=14	=14	=14	=14	=14	=14	=14	=14	=14	=14	=14	=14	=14	=14	=14	=14	=14	=14	=14	=14	=14	=14	=14	=14	=14	=14	=14	=14	=14	=14	=14	=14	=14	=14	=14	=14	=14	=14	=14	=14	=14
*	*	*	*	*	*	*	*	*	*	*	*	*	*	*	*	*	*	*	*	*ij	*	*	*	*	*	*	*	*	*	*	*	*	*	*	*	*	*	*	*	*
!	!	!	!	!	!	!	!	!	!	!	!	!	!	!	!	!	!	!	!	!	!	!LO:TX:a:t=2	!LO:TX:a:t=2	!	!LO:TX:a:t=2	!	!	!	!	!	!	!	!	!	!	!	!	!	!	!
8r	.	.	8r	.	8r	.	2.dd\	.	2.ff#\	.	8r	.	2d\	San-	.	8r	.	.	2ff#\	San-	.	1.r	1.r	.	1.r	.	2.d\	.	2.f#\	.	8r	.	8r	.	2.dd\	.	2.ff#\	.	8r	.
8B\L	_	.	8b|\L	.	8B|/L	.	.	.	.	.	8B'\L	San-	.	.	.	8b\L	Sanc-	.	.	.	.	.	.	.	.	.	.	.	.	.	8B|\	.	8B\L	.	.	.	.	.	8bb'\	.
(8A#X\	.	.	(8a#X\	.	(8A#X/	.	.	.	.	.	(8A#X\	.	.	.	.	(8a#X\	.	.	.	.	.	.	.	.	.	.	.	.	.	.	(8A#X\L	.	(8A#X\	.	.	.	.	.	(8aa#X\L	.
8B\)	.	.	8b\)	.	8B/	.	.	.	.	.	8B\J)	.	.	.	.	8b\J)	.	.	.	.	.	.	.	.	.	.	.	.	.	.	8B\)	.	8B\)	.	.	.	.	.	8bb\)	.
8A#\	x	.	(8a#\	.	8A#/	.	.	.	.	.	(8A#\L	-cto	4d\	-cto	.	8a#\L	-to	.	4ff#\	-cto	.	.	.	.	.	.	.	.	.	.	8A#\	.	8A#\	.	.	.	.	.	(8aa#\	.
*	*	*	*	*	*	*	*	*	*	*	*	*	*	*	*	*	*	*	*	*Xij	*	*	*	*	*	*	*	*	*	*	*	*	*	*	*	*	*	*	*	*
8B\J	.	.	8b\J)	.	8B/J)	.	.	.	.	.	8B\J)	.	.	.	.	8b\J	.	.	.	.	.	.	.	.	.	.	.	.	.	.	8B\J	.	8B\J	.	.	.	.	.	8bb\J)	.
!	!	!	!	!	!	!	!	!	!	!	!	!	!	!	!	!	!	!	!	!	!	!	!	!	!	!	!	!	!	!	!	!	!	!	!LO:LB:g=original	!	!	!	!	!
=15	=15	=15	=15	=15	=15	=15	=15	=15	=15	=15	=15	=15	=15	=15	=15	=15	=15	=15	=15	=15	=15	=15	=15	=15	=15	=15	=15	=15	=15	=15	=15	=15	=15	=15	=15	=15	=15	=15	=15	=15
*tremolo	*	*	*2\right	*	*	*	*	*	*	*	*	*	*	*	*	*	*	*	*	*	*	*	*	*	*	*	*	*	*	*	*2\right	*	*2\right	*	*	*	*	*	*	*
8G#X\L	n7 5	.	2g#X\	.	4fn\	.	4dd\	.	(4ffn\	.	2G#X\	Spi-	4d\	Spi-	.	2g#X\	Spi-	.	(4ffn\	Spi-	.	.	.	.	.	.	2.r	.	2.r	.	2G#X\	.	2G#X\	.	4dd\	.	4ffn\	.	2.gg#X\	.
8G#X\	.	.	.	.	.	.	.	.	.	.	.	.	.	.	.	.	.	.	.	.	.	.	.	.	.	.	.	.	.	.	.	.	.	.	.	.	.	.	.	.
8G#X\	6 4	.	.	.	4e\	.	4cc#\	.	4ee\)	.	.	.	4c#\	.	.	.	.	.	4ee\)	.	.	.	.	.	.	.	.	.	.	.	.	.	.	.	4cc#\	.	4ee\	.	.	.
8G#X\	.	.	.	.	.	.	.	.	.	.	.	.	.	.	.	.	.	.	.	.	.	.	.	.	.	.	.	.	.	.	.	.	.	.	.	.	.	.	.	.
!	!	!	!LO:SIC:v:s=4f#\	!	!	!	!	!	!	!	!	!	!	!	!	!	!	!	!	!	!	!	!	!	!	!	!	!	!	!	!	!	!	!	!	!	!	!	!	!
8G#X\	5 3	.	4e\	.	4d\	.	4b\	.	4dd'\	.	4G#\	-ri-	4B\	-ri-	.	4f#\	-ri-	.	4dd|\	-ri-	.	.	.	.	.	.	.	.	.	.	4G#\	.	4G#\	.	4b\	.	4dd\	.	.	.
8G#X\J	.	.	.	.	.	.	.	.	.	.	.	.	.	.	.	.	.	.	.	.	.	.	.	.	.	.	.	.	.	.	.	.	.	.	.	.	.	.	.	.
*Xtremolo	*	*	*	*	*	*	*	*	*	*	*	*	*	*	*	*	*	*	*	*	*	*	*	*	*	*	*	*	*	*	*	*	*	*	*	*	*	*	*	*
!	!	!	!LO:LB:g=original	!	!	!	!LO:PB:g=original	!	!	!	!	!	!	!	!	!	!	!	!	!	!	!	!	!	!	!	!	!	!	!	!LO:LB:g=original	!	!	!	!	!	!	!	!	!
=16	=16	=16	=16	=16	=16	=16	=16	=16	=16	=16	=16	=16	=16	=16	=16	=16	=16	=16	=16	=16	=16	=16	=16	=16	=16	=16	=16	=16	=16	=16	=16	=16	=16	=16	=16	=16	=16	=16	=16	=16
!	!	!	!	!	!	!	!	!LO:DY:b:t=p.	!	!LO:DY:b:t=pia	!	!	!	!	!	!	!	!	!	!	!	!	!	!	!	!LO:DY:b	!	!	!	!	!	!	!	!	!	!	!	!	!	!
4A\	3	.	4e\	.	4e\	.	8a|/L	p	(8cc#\L	p	4A\	-tu	4A\	-tu	.	4e\	-tu	.	4cc#|\	-tu	.	4Rf/	4a/	.	4ee\	p	4AA/	.	4A/	.	4A\	.	4A\	.	4a/	.	4cc#\	.	4aa\	.
.	.	.	.	.	.	.	8f#|/	.	8dd\)	.	.	.	.	.	.	.	.	.	.	.	.	.	.	.	.	.	.	.	.	.	.	.	.	.	.	.	.	.	.	.
4r	.	.	4r	.	4r	.	8c#|/	.	8ee'\	.	4r	.	4r	.	.	4r	.	.	4r	.	.	4r	4r	.	4r	.	4r	.	4r	.	4r	.	4r	.	4r	.	4r	.	4r	.
.	.	.	.	.	.	.	8d|/	.	8ff#X'\	.	.	.	.	.	.	.	.	.	.	.	.	.	.	.	.	.	.	.	.	.	.	.	.	.	.	.	.	.	.	.
4r	.	.	4r	.	4r	.	8e|/	.	8ggn'\	.	4r	.	4r	.	.	4r	.	.	4r	.	.	4r	4r	.	4r	.	4r	.	4r	.	4r	.	4r	.	4r	.	4r	.	4r	.
.	.	.	.	.	.	.	8f#|/J	.	8aa'\J	.	.	.	.	.	.	.	.	.	.	.	.	.	.	.	.	.	.	.	.	.	.	.	.	.	.	.	.	.	.	.
!	!	!	!	!	!	!	!	!	!	!	!	!	!	!	!	!	!	!	!	!	!	!	!LO:LB:g=original	!	!	!	!	!	!	!	!	!	!LO:LB:g=original	!	!	!	!	!	!	!
=17	=17	=17	=17	=17	=17	=17	=17	=17	=17	=17	=17	=17	=17	=17	=17	=17	=17	=17	=17	=17	=17	=17	=17	=17	=17	=17	=17	=17	=17	=17	=17	=17	=17	=17	=17	=17	=17	=17	=17	=17
!	!	!	!LO:TX:a:t=1	!	!LO:TX:a:t=1	!	!	!	!	!	!LO:TX:a:t=1.	!	!LO:TX:a:t=1.	!	!	!LO:TX:a:t=1	!	!	!LO:TX:a:t=1.	!	!	!	!	!	!	!	!	!	!	!	!	!	!	!	!LO:TX:a:t=1	!	!LO:TX:a:t=1	!	!LO:TX:a:t=2	!
2.r	.	.	2.r	.	2.r	.	4g/	.	(8bb\L	.	2.r	.	2.r	.	.	2.r	.	.	2.r	.	.	2.r	2.r	.	2.r	.	2.r	.	2.r	.	2.r	.	2.r	.	2.r	.	2.r	.	1.r	.
.	.	.	.	.	.	.	.	.	8ggn\)	.	.	.	.	.	.	.	.	.	.	.	.	.	.	.	.	.	.	.	.	.	.	.	.	.	.	.	.	.	.	.
.	.	.	.	.	.	.	8e/L	.	8ee'\	.	.	.	.	.	.	.	.	.	.	.	.	.	.	.	.	.	.	.	.	.	.	.	.	.	.	.	.	.	.	.
.	.	.	.	.	.	.	8d/	.	8dd'\	.	.	.	.	.	.	.	.	.	.	.	.	.	.	.	.	.	.	.	.	.	.	.	.	.	.	.	.	.	.	.
.	.	.	.	.	.	.	8c#/	.	8cc#'\	.	.	.	.	.	.	.	.	.	.	.	.	.	.	.	.	.	.	.	.	.	.	.	.	.	.	.	.	.	.	.
.	.	.	.	.	.	.	8A/J	.	8a'\J	.	.	.	.	.	.	.	.	.	.	.	.	.	.	.	.	.	.	.	.	.	.	.	.	.	.	.	.	.	.	.
!	!	!	!	!	!	!	!	!	!	!	!	!	!	!	!	!	!	!	!	!	!	!	!	!	!LO:LB:g=original	!	!	!	!	!	!	!	!	!	!	!	!LO:LB:g=original	!	!	!
=18	=18	=18	=18	=18	=18	=18	=18	=18	=18	=18	=18	=18	=18	=18	=18	=18	=18	=18	=18	=18	=18	=18	=18	=18	=18	=18	=18	=18	=18	=18	=18	=18	=18	=18	=18	=18	=18	=18	=18	=18
4r	.	.	4r	.	4r	.	4d/	.	4dd\	.	4r	.	4r	.	.	4r	.	.	4r	.	.	4r	4r	.	4r	.	4r	.	4r	.	4r	.	4r	.	4r	.	4r	.	.	.
!	!	!	!	!LO:DY:b:t=for	!	!LO:DY:b	!	!LO:DY:b:t=for&colon;	!	!LO:DY:b:t=for	!	!	!	!	!	!	!	!	!	!	!	!	!	!	!	!LO:DY:b:t=for	!	!	!	!	!	!LO:DY:a:t=forte	!	!LO:DY:a:t=Forte	!	!	!	!	!	!
4C#/	3	.	4c#/	f	4g\	f	4ee\	f	4gg\	f	(>4C#/	cum	4e\	Cum	.	2an\	cum	.	(4gg\	Cum	.	4Rf/	4a/	.	4ee\	f	4A/	.	4e\	.	4AA/	f	4C#/	f	4ee\	.	4gg\	.	.	.
4D/	3	.	4d/	.	4f#\	.	4dd\	.	4ff#\	.	4D/)	.	4d\	.	.	.	.	.	4ff#\)	.	.	4Rb\	4dd\	.	4ff#\	.	4d\	.	4f#\	.	4DD/	.	4D/	.	4dd\	.	4ff#X\	.	.	.
!LO:LB:g=original	!	!	!	!	!	!	!	!	!	!	!	!	!	!	!	!	!	!	!	!	!	!	!	!	!	!	!	!	!	!	!	!	!	!	!	!	!	!	!	!
=19	=19	=19	=19	=19	=19	=19	=19	=19	=19	=19	=19	=19	=19	=19	=19	=19	=19	=19	=19	=19	=19	=19	=19	=19	=19	=19	=19	=19	=19	=19	=19	=19	=19	=19	=19	=19	=19	=19	=19	=19
4G\	6	.	4g\	.	4e\	.	4g/	.	4ee\	.	(4G\	San-	4B\	San-	.	(4gn\	s(an)c-	.	(4ee\	San-	.	4r	4r	.	4r	.	4e\	.	4g\	.	4GG/	.	4G\	.	4g/	.	4ee\	.	4eee\	.
4A\	4	.	4a\	.	4d\	.	4f#/	.	4dd\	.	4A\)	.	4A\	.	.	4f#\)	.	.	4dd\)	.	.	4Rf/	4dd\	.	4ff#\	.	4d\	.	4f#\	.	4AA/	.	4A\	.	4f#/	.	4dd\	.	4ddd\	.
4AA/	3	.	4A/	.	4c#\	.	4e/	.	4cc#\	.	4AA/	-cto	4A\	-cto	.	4e\	-to	.	4cc#|\	-cto	.	4Rf/	4a/	.	4ee\	.	4A/	.	4e\	.	4A\	.	4AA/	.	4e/	.	4cc#\	.	4ccc#\	.
!	!	!	!	!	!	!	!	!	!LO:LB:g=original	!	!	!	!	!	!	!	!	!	!	!	!	!	!	!	!	!	!	!	!	!	!	!	!	!	!	!	!	!	!	!
=20	=20	=20	=20	=20	=20	=20	=20	=20	=20	=20	=20	=20	=20	=20	=20	=20	=20	=20	=20	=20	=20	=20	=20	=20	=20	=20	=20	=20	=20	=20	=20	=20	=20	=20	=20	=20	=20	=20	=20	=20
4D/	.	.	4d\	.	4d\	.	4f#\	.	4dd\	.	(4D\	Spi-	4A\	spi-	.	4f#\	Spi-	.	(4dd\	spi-	.	4Rb\	4f#/	.	4dd\	.	4F#/	.	4d\	.	4D/	.	4D/	.	4f#/	.	4dd\	.	4ddd\	.
4D/	3	.	4d\	.	4r	.	4dd\	.	4ff#\	.	4d\)	.	4d\	.	.	4r	.	.	4ff#\)	.	.	4r	4dd\	.	4ff#\	.	4d\	.	4f#\	.	4D/	.	4d\	.	4dd\	.	4ff#\	.	4ddd\	.
4BB/	6\	.	4e\	.	4g#X\	.	4b\	.	4gg#X\	.	4B'\	-ri-	4B\	-ri-	.	4e\	-ri-	.	4gg#X\	-ri-	.	4r	4ee\	.	4ee\	.	4d\	.	4g#X\	.	4BB/	.	4B\	.	4b\	.	4gg#X\	.	4bb\	.
!	!	!	!	!	!LO:LB:g=original	!	!	!	!	!	!	!	!	!	!	!	!	!	!	!	!	!	!	!	!	!	!LO:LB:g=original	!	!	!	!	!	!	!	!	!	!	!	!	!
=21	=21	=21	=21	=21	=21	=21	=21	=21	=21	=21	=21	=21	=21	=21	=21	=21	=21	=21	=21	=21	=21	=21	=21	=21	=21	=21	=21	=21	=21	=21	=21	=21	=21	=21	=21	=21	=21	=21	=21	=21
!	!	!	!	!	!	!	!	!LO:DY:b:t=p&colon;	!	!	!	!	!	!	!	!	!	!	!	!	!	!	!	!	!	!	!	!	!LO:SIC:v:s=4a\	!	!	!	!	!LO:DY:a:t=Piano	!	!	!	!	!	!
4AA/	3	.	4e\	.	4a\	.	4cc#\	p	4aa\	.	4A'\	-tu	4c#\	-tu	.	4e\	-tu	.	4aa\	-tu	.	4Rf/	4a/	.	4ee\	.	4e\	.	4b\	.	4AA/	.	4A\	p	4cc#\	.	4aa\	.	4ccc#\	.
!	!	!	!	!	!	!	!	!	!	!LO:DY:b:t=pia&colon;	!	!	!	!	!	!	!	!	!	!	!	!	!	!	!	!	!	!	!	!	!	!LO:DY:a:t=Piano	!	!	!	!	!	!	!	!
4r	.	.	4r	.	4r	.	4cc#\	.	4ee\	p	4r	.	4r	.	.	4r	.	.	4r	.	.	4r	4r	.	4r	.	4r	.	4r	.	4c#\	p	4e\	.	4r	.	4r	.	4r	.
4r	.	.	4r	.	4r	.	8dd\L	.	(8ff#\L	.	4r	.	4r	.	.	4r	.	.	4r	.	.	4r	4r	.	4r	.	4r	.	4r	.	(8d\L	.	(8f#\L	.	4r	.	4r	.	4r	.
.	.	.	.	.	.	.	8b\J	.	8dd\J)	.	.	.	.	.	.	.	.	.	.	.	.	.	.	.	.	.	.	.	.	.	8B\J)	.	8d\J)	.	.	.	.	.	.	.
=22	=22	=22	=22	=22	=22	=22	=22	=22	=22	=22	=22	=22	=22	=22	=22	=22	=22	=22	=22	=22	=22	=22	=22	=22	=22	=22	=22	=22	=22	=22	=22	=22	=22	=22	=22	=22	=22	=22	=22	=22
!	!	!LO:DY:a:t=pianiſ&colon;	!	!LO:DY:a:t=pia	!	!	!	!	!	!	!LO:TX:a:t=3.	!	!LO:TX:a:t=3.	!	!	!LO:TX:a:t=3	!	!	!LO:TX:a:t=3	!	!	!	!	!LO:DY:b	!	!	!	!LO:DY:b	!	!	!	!	!	!	!	!	!LO:TX:a:t=3	!	!	!LO:DY:b:t=pia&colon;
4AA/	.	pp	4e\	p	4A/	.	4a/	.	4cc#\	.	1.r	.	1.r	.	.	1.r	.	.	1.r	.	.	4Rf/	4a/	p	4ee\	.	4A/	p	4e\	p	4A\	.	4c#\	.	1.r	.	1.r	.	4ccc#\	p
4r	.	.	4r	.	4r	.	4a/	.	4cc#\	.	.	.	.	.	.	.	.	.	.	.	.	4r	4r	.	4r	.	4r	.	4r	.	4A\	.	4c#\	.	.	.	.	.	4ccc#\	.
4r	.	.	4r	.	4r	.	(8f#/L	.	(8dd\L	.	.	.	.	.	.	.	.	.	.	.	.	4r	4r	.	4r	.	4r	.	4r	.	(8F#\L	.	(8d\L	.	.	.	.	.	(8ddd\L	.
.	.	.	.	.	.	.	8d/J)	.	8b\J)	.	.	.	.	.	.	.	.	.	.	.	.	.	.	.	.	.	.	.	.	.	8D\J)	.	8B\J)	.	.	.	.	.	8bb\J)	.
=23	=23	=23	=23	=23	=23	=23	=23	=23	=23	=23	=23	=23	=23	=23	=23	=23	=23	=23	=23	=23	=23	=23	=23	=23	=23	=23	=23	=23	=23	=23	=23	=23	=23	=23	=23	=23	=23	=23	=23	=23
!	!	!	!	!LO:DY:b:t=pp.	!	!LO:DY:b	!	!LO:DY:a	!	!LO:DY:b:t=pp&colon;	!	!	!	!	!	!	!	!	!	!	!	!	!	!LO:DY:b	!	!	!	!LO:DY:b	!	!LO:DY:b:t=piano	!	!	!	!LO:DY:a	!	!	!	!	!	!LO:DY:b:t=pp&colon;
4AA|</	.	.	4e\	pp	4A/	pp	4c#/	pp	4a/	pp	.	.	.	.	.	.	.	.	.	.	.	4Rf/	4a/	pp	4ee\	.	4A/	pp	4e\	p	4C#/	.	4A\	pp	.	.	.	.	4aa\	pp
4AA|</	.	.	4e\	.	4A/	.	4c#/	.	4a/	.	.	.	.	.	.	.	.	.	.	.	.	4Rf/	4a/	.	4ee\	.	4A/	.	4e\	.	4AA/	.	4A\	.	.	.	.	.	4aa\	.
4AA|</	.	.	4e\	.	4A/	.	4c#/	.	4a/	.	.	.	.	.	.	.	.	.	.	.	.	4Rf/	4a/	.	4ee\	.	4A/	.	4e\	.	4AA/	.	4A\	.	.	.	.	.	4aa\	.
=24	=24	=24	=24	=24	=24	=24	=24	=24	=24	=24	=24	=24	=24	=24	=24	=24	=24	=24	=24	=24	=24	=24	=24	=24	=24	=24	=24	=24	=24	=24	=24	=24	=24	=24	=24	=24	=24	=24	=24	=24
*	*	*	*	*	*	*	*	*	*	*	*	*	*	*	*	*	*	*	*	*	*	*	*	*	*2\right	*	*	*	*	*	*	*	*	*	*	*	*	*	*	*
2AA|</	.	.	2e\	.	2A/	.	2c#/	.	2a/	.	2.r	.	2.r	.	.	2.r	.	.	2.r	.	.	2Rf/	2a/	.	2ee\	.	2A/	.	2e\	.	2AA/	.	2A\	.	2.r	.	2.r	.	2aa\	.
!LO:TX:a:t=Volti Subito	!	!	!	!	!	!	!	!	!	!	!	!	!	!	!	!	!	!	!	!	!	!	!	!	!	!	!	!	!	!	!	!	!	!	!	!	!	!	!	!
4r	.	.	4r	.	4r	.	4r	.	4r	.	.	.	.	.	.	.	.	.	.	.	.	4r	4r	.	4r	.	4r	.	4r	.	4r	.	4r	.	.	.	.	.	4r	.
==	==	==	==	==	==	==	==	==	==	==	==	==	==	==	==	==	==	==	==	==	==	==	==	==	==	==	==	==	==	==	==	==	==	==	==	==	==	==	==	==
*-	*-	*-	*-	*-	*-	*-	*-	*-	*-	*-	*-	*-	*-	*-	*-	*-	*-	*-	*-	*-	*-	*-	*-	*-	*-	*-	*-	*-	*-	*-	*-	*-	*-	*-	*-	*-	*-	*-	*-	*-
!!!system-decoration: [(s1,s2,s3,s4,s5)][(s6,s7,s8,s9)](s10)[(s11,s12,s13,s14)][(s15,s16,s17,s18)](s19)
!!!RDF**kern: < = below
!!!RDF**kern: > = above
!!!RDF**kern: | = vertical stroke
!!!ENC: Andrzej Gręziak
!!!END: 2020-10-23
!!!ENC: Marta Chmielewska
!!!END: 2022-03-31
